build/img/svg/phone-cover.svg

<svg width="30" height="30" viewBox="0 0 30 30" fill="none" xmlns="http://www.w3.org/2000/svg">
<path d="M27.4998 21.1501V24.9001C27.5012 25.2482 27.4299 25.5928 27.2904 25.9118C27.151 26.2308 26.9464 26.5171 26.6899 26.7525C26.4334 26.9878 26.1305 27.167 25.8007 27.2785C25.4709 27.39 25.1215 27.4315 24.7748 27.4001C20.9283 26.9822 17.2335 25.6678 13.9873 23.5626C10.9671 21.6435 8.40646 19.0828 6.48729 16.0626C4.37477 12.8016 3.0601 9.08886 2.64979 5.22512C2.61856 4.87945 2.65964 4.53107 2.77042 4.20215C2.8812 3.87323 3.05926 3.57098 3.29325 3.31465C3.52725 3.05831 3.81205 2.85351 4.12953 2.71327C4.44702 2.57304 4.79022 2.50045 5.13729 2.50012H8.88729C9.49393 2.49415 10.082 2.70897 10.542 3.10454C11.002 3.5001 11.3024 4.04943 11.3873 4.65012C11.5456 5.8502 11.8391 7.02853 12.2623 8.16262C12.4305 8.61003 12.4669 9.09626 12.3672 9.56372C12.2675 10.0312 12.0359 10.4603 11.6998 10.8001L10.1123 12.3876C11.8917 15.5171 14.4829 18.1082 17.6123 19.8876L19.1998 18.3001C19.5397 17.964 19.9687 17.7324 20.4362 17.6327C20.9037 17.533 21.3899 17.5694 21.8373 17.7376C22.9714 18.1608 24.1497 18.4543 25.3498 18.6126C25.957 18.6983 26.5115 19.0041 26.908 19.472C27.3044 19.9399 27.515 20.5371 27.4998 21.1501Z" fill="white" stroke="white" stroke-width="2" stroke-linecap="round" stroke-linejoin="round"/>
</svg>

<svg width="30" height="30" fill="none" xmlns="http://www.w3.org/2000/svg"><path d="M27.5 21.15v3.75a2.5 2.5 0 01-2.725 2.5 24.736 24.736 0 01-10.788-3.837 24.375 24.375 0 01-7.5-7.5A24.738 24.738 0 012.65 5.225 2.5 2.5 0 015.137 2.5h3.75a2.5 2.5 0 012.5 2.15c.159 1.2.452 2.379.875 3.513A2.5 2.5 0 0111.7 10.8l-1.588 1.588a20 20 0 007.5 7.5L19.2 18.3a2.5 2.5 0 012.637-.562 16.05 16.05 0 003.513.875 2.5 2.5 0 012.15 2.537z" fill="#fff" stroke="#fff" stroke-width="2" stroke-linecap="round" stroke-linejoin="round"/></svg>
